src/styles/images/restart.svg

<svg width="30" height="30" viewBox="0 0 30 30" fill="none" xmlns="http://www.w3.org/2000/svg">
<path fill-rule="evenodd" clip-rule="evenodd" d="M3.67347 15.0009C3.6726 17.5782 4.53864 20.0777 6.12672 22.0813C7.71481 24.0848 9.92864 25.471 12.3979 26.008C14.8673 26.5449 17.4423 26.2001 19.6924 25.0311C21.9424 23.8621 23.7311 21.9399 24.7592 19.5859L28.1657 20.9984C26.8153 24.1571 24.4407 26.7448 21.4413 28.3266C18.4418 29.9083 15.0003 30.3876 11.6954 29.6839C8.3905 28.9801 5.42371 27.1363 3.29381 24.4623C1.16391 21.7883 0.000797272 18.4473 0 15.0009C-0.000143051 11.8702 0.959274 8.81787 2.74379 6.27176C4.52831 3.72566 7.04849 1.81335 9.95112 0.802851C12.8538 -0.207648 15.9934 -0.265693 18.9299 0.636851C21.8665 1.53939 24.4529 3.35729 26.3265 5.83576V1.25071H30V11.2508L28.1633 13.1258H19.5918V9.3758H24.24C23.0275 7.22996 21.1551 5.55265 18.9133 4.60417C16.6716 3.65569 14.1859 3.48907 11.8419 4.13017C9.49787 4.77126 7.4267 6.18422 5.94974 8.14979C4.47279 10.1154 3.67264 12.5236 3.67347 15.0009Z" fill="white"/>
</svg>

<svg width="30" height="30" fill="none" xmlns="http://www.w3.org/2000/svg"><path fill-rule="evenodd" clip-rule="evenodd" d="M3.673 15c0 2.578.866 5.078 2.454 7.081a10.989 10.989 0 0 0 6.27 3.927 10.82 10.82 0 0 0 7.295-.977 11.155 11.155 0 0 0 5.067-5.445l3.407 1.412a14.882 14.882 0 0 1-6.725 7.329 14.43 14.43 0 0 1-9.746 1.357 14.651 14.651 0 0 1-8.401-5.222A15.197 15.197 0 0 1 0 15.001c0-3.13.96-6.183 2.744-8.73A14.723 14.723 0 0 1 9.95.804 14.409 14.409 0 0 1 18.93.637a14.692 14.692 0 0 1 7.396 5.199V1.25H30v10l-1.837 1.875h-8.571v-3.75h4.648a11.095 11.095 0 0 0-5.327-4.772 10.81 10.81 0 0 0-7.071-.474A11.011 11.011 0 0 0 5.95 8.15 11.403 11.403 0 0 0 3.673 15Z" fill="#fff"/></svg>
